X:1
T:Ghostly Tune from the Living Library
M:4/4
L:1/8
R:Air
K:Cmin
|: (3def g2 a2 | b2 a2 g2 f2 | e2 d2 c2 B,2 | A,2 G,2 F,2 E,2 :|
|: (3c'd' c2 d2 | e2 f2 g2 a2 | b2 a2 g2 f2 | e2 d2 c2 B,2 :|
|: (3A,B,c' A,2 B,2 | C2 D2 E2 F2 | G2 F2 E2 D2 | C2 B,2 A,2 G,2 :|